media/img/icons/dark/values.svg

<?xml version="1.0" encoding="UTF-8" standalone="no"?>
<svg
   width="16"
   height="16"
   viewBox="0 0 16 16"
   fill="currentColor"
   version="1.1"
   id="svg14813"
   sodipodi:docname="values.svg"
   inkscape:version="1.2 (dc2aeda, 2022-05-15)"
   xmlns:inkscape="http://www.inkscape.org/namespaces/inkscape"
   xmlns:sodipodi="http://sodipodi.sourceforge.net/DTD/sodipodi-0.dtd"
   xmlns="http://www.w3.org/2000/svg"
   xmlns:svg="http://www.w3.org/2000/svg">
  <defs
     id="defs14817" />
  <sodipodi:namedview
     id="namedview14815"
     pagecolor="#ffffff"
     bordercolor="#666666"
     borderopacity="1.0"
     inkscape:showpageshadow="2"
     inkscape:pageopacity="0.0"
     inkscape:pagecheckerboard="0"
     inkscape:deskcolor="#d1d1d1"
     showgrid="false"
     inkscape:zoom="51.375"
     inkscape:cx="8.0291971"
     inkscape:cy="8"
     inkscape:window-width="1920"
     inkscape:window-height="972"
     inkscape:window-x="0"
     inkscape:window-y="25"
     inkscape:window-maximized="1"
     inkscape:current-layer="svg14813" />
  <path
     fill-rule="evenodd"
     clip-rule="evenodd"
     d="M4 6h8v1H4V6zm8 3H4v1h8V9z"
     id="path14809"
     style="fill:#c5c5c5;fill-opacity:1" />
  <path
     fill-rule="evenodd"
     clip-rule="evenodd"
     d="M1 4l1-1h12l1 1v8l-1 1H2l-1-1V4zm1 0v8h12V4H2z"
     id="path14811"
     style="fill:#c5c5c5;fill-opacity:1" />
</svg>

<svg width="16" height="16" viewBox="0 0 16 16" fill="none" xmlns="http://www.w3.org/2000/svg">
<path fill-rule="evenodd" clip-rule="evenodd" d="M4 6H12V7H4V6ZM12 9H4V10H12V9Z" fill="#C5C5C5"/>
<path fill-rule="evenodd" clip-rule="evenodd" d="M1 4L2 3H14L15 4V12L14 13H2L1 12V4ZM2 4V12H14V4H2Z" fill="#C5C5C5"/>
</svg>
